X:23
T:Rashid Khn
O:Iran
Z:anamnese@laposte.net
M:6/8
L:1/8
Q:1/4=105
K:C
V:1
%%MIDI program 0
%%staves {1 2}
EE2 BA2 | G3 (GAB) | GA2 (cBA) | (G2A) B3 |
EE2 BA2 | G3 (GAB) | GA2 (cBA) | G2 =F E3 |
G3 G3 | AA2 F3 | E2 G (FEF) | GG2 E3 |
G3 G3 | AA2 F3 | E2 G (FEF) | GG2 E3 ||
V:2
%%MIDI program 0
%%MIDI transpose 0
E,G,B, E,A,C | E,G,B, E,G,B, | E,A,C E,A,C | E,G,B, E,G,B, |
E,G,B, E,A,C | E,G,B, E,G,B, | E,A,C E,A,C | E,G,B, E,G,B, |
E,G,B, E,A,C | F,A,C F,A,C | E,A,C F,A,C | E,G,B, E,A,C | 
E,G,B, E,A,C | F,A,C F,A,C | E,A,C F,A,C | E,G,B, E,A,C ||
